Simply-White-Circles/scalable/apps/lightsoff.svg

<svg xmlns="http://www.w3.org/2000/svg" width="48" height="48" viewBox="0 0 12.7 12.7"><path d="M7.25.65a.6.6 0 0 0-.6.6v4.2c0 .33.27.6.6.6h4.2a.6.6 0 0 0 .6-.6V4.9a5.93 5.93 0 0 0-.02-.1 5.93 5.93 0 0 0-.18-.56 5.93 5.93 0 0 0-.25-.54 5.93 5.93 0 0 0-.3-.51 5.93 5.93 0 0 0-.34-.48 5.93 5.93 0 0 0-.39-.45 5.93 5.93 0 0 0-.43-.4 5.93 5.93 0 0 0-.47-.36 5.93 5.93 0 0 0-.5-.31 5.93 5.93 0 0 0-.54-.26 5.93 5.93 0 0 0-.56-.2 5.93 5.93 0 0 0-.35-.1h-.47zm-6 6a.6.6 0 0 0-.6.6v.9a5.93 5.93 0 0 0 .14.42 5.93 5.93 0 0 0 .24.54 5.93 5.93 0 0 0 .3.51 5.93 5.93 0 0 0 .34.48 5.93 5.93 0 0 0 .4.45 5.93 5.93 0 0 0 .43.4 5.93 5.93 0 0 0 .47.36 5.93 5.93 0 0 0 .5.3 5.93 5.93 0 0 0 .54.27 5.93 5.93 0 0 0 .5.17h.94a.6.6 0 0 0 .6-.6v-4.2a.6.6 0 0 0-.6-.6h-4.2z" fill="#e6e6e6" opacity=".53"/><path d="M6.34.07a6.29 6.29 0 0 0-6.29 6.3 6.29 6.29 0 0 0 6.3 6.28 6.29 6.29 0 0 0 6.28-6.29A6.29 6.29 0 0 0 6.34.07zM6.32 1l.01.01a5.4 5.4 0 0 1 5.4 5.4 5.4 5.4 0 0 1-.01.3.6.6 0 0 0-.27-.06h-4.2a.6.6 0 0 0-.6.6v4.2c0 .13.04.25.11.35a5.4 5.4 0 0 1-.43.02 5.4 5.4 0 0 1-5.41-5.4 5.4 5.4 0 0 1 .02-.46c.1.06.2.09.3.09h4.2a.6.6 0 0 0 .61-.6v-4.2A.6.6 0 0 0 6 1 5.4 5.4 0 0 1 6.32 1z" fill="#e6e6e6"/></svg>

<?xml version="1.0" encoding="UTF-8" standalone="no"?>
<svg
   xmlns:dc="http://purl.org/dc/elements/1.1/"
   xmlns:cc="http://creativecommons.org/ns#"
   xmlns:rdf="http://www.w3.org/1999/02/22-rdf-syntax-ns#"
   xmlns:svg="http://www.w3.org/2000/svg"
   xmlns="http://www.w3.org/2000/svg"
   xmlns:sodipodi="http://sodipodi.sourceforge.net/DTD/sodipodi-0.dtd"
   xmlns:inkscape="http://www.inkscape.org/namespaces/inkscape"
   width="48"
   height="48"
   viewBox="0 0 12.7 12.7"
   version="1.1"
   id="svg6"
   sodipodi:docname="lightsoff.svg"
   inkscape:version="0.92.4 (5da689c313, 2019-01-14)">
  <metadata
     id="metadata12">
    <rdf:RDF>
      <cc:Work
         rdf:about="">
        <dc:format>image/svg+xml</dc:format>
        <dc:type
           rdf:resource="http://purl.org/dc/dcmitype/StillImage" />
        <dc:title></dc:title>
      </cc:Work>
    </rdf:RDF>
  </metadata>
  <defs
     id="defs10" />
  <sodipodi:namedview
     pagecolor="#ffffff"
     bordercolor="#666666"
     borderopacity="1"
     objecttolerance="10"
     gridtolerance="10"
     guidetolerance="10"
     inkscape:pageopacity="0"
     inkscape:pageshadow="2"
     inkscape:window-width="1087"
     inkscape:window-height="480"
     id="namedview8"
     showgrid="false"
     inkscape:zoom="4.9166667"
     inkscape:cx="2.1355932"
     inkscape:cy="24"
     inkscape:window-x="0"
     inkscape:window-y="25"
     inkscape:window-maximized="0"
     inkscape:current-layer="svg6" />
  <path
     d="m 7.25,0.65 a 0.6,0.6 0 0 0 -0.6,0.6 v 4.2 c 0,0.33 0.27,0.6 0.6,0.6 h 4.2 a 0.6,0.6 0 0 0 0.6,-0.6 V 4.9 A 5.93,5.93 0 0 0 12.03,4.8 5.93,5.93 0 0 0 11.85,4.24 5.93,5.93 0 0 0 11.6,3.7 5.93,5.93 0 0 0 11.3,3.19 5.93,5.93 0 0 0 10.96,2.71 5.93,5.93 0 0 0 10.57,2.26 5.93,5.93 0 0 0 10.14,1.86 5.93,5.93 0 0 0 9.67,1.5 5.93,5.93 0 0 0 9.17,1.19 5.93,5.93 0 0 0 8.63,0.93 5.93,5.93 0 0 0 8.07,0.73 5.93,5.93 0 0 0 7.72,0.63 H 7.25 Z m -6,6 a 0.6,0.6 0 0 0 -0.6,0.6 v 0.9 a 5.93,5.93 0 0 0 0.14,0.42 5.93,5.93 0 0 0 0.24,0.54 5.93,5.93 0 0 0 0.3,0.51 5.93,5.93 0 0 0 0.34,0.48 5.93,5.93 0 0 0 0.4,0.45 5.93,5.93 0 0 0 0.43,0.4 5.93,5.93 0 0 0 0.47,0.36 5.93,5.93 0 0 0 0.5,0.3 5.93,5.93 0 0 0 0.54,0.27 5.93,5.93 0 0 0 0.5,0.17 h 0.94 a 0.6,0.6 0 0 0 0.6,-0.6 v -4.2 a 0.6,0.6 0 0 0 -0.6,-0.6 z"
     id="path2"
     inkscape:connector-curvature="0"
     style="opacity:0.52999998;fill:#e6e6e6" />
  <path
     d="M 6.34,0.07 A 6.29,6.29 0 0 0 0.05,6.37 6.29,6.29 0 0 0 6.35,12.65 6.29,6.29 0 0 0 12.63,6.36 6.29,6.29 0 0 0 6.34,0.07 Z M 6.32,1 6.33,1.01 a 5.4,5.4 0 0 1 5.4,5.4 5.4,5.4 0 0 1 -0.01,0.3 0.6,0.6 0 0 0 -0.27,-0.06 h -4.2 a 0.6,0.6 0 0 0 -0.6,0.6 v 4.2 c 0,0.13 0.04,0.25 0.11,0.35 A 5.4,5.4 0 0 1 6.33,11.82 5.4,5.4 0 0 1 0.92,6.42 5.4,5.4 0 0 1 0.94,5.96 c 0.1,0.06 0.2,0.09 0.3,0.09 h 4.2 A 0.6,0.6 0 0 0 6.05,5.45 V 1.25 A 0.6,0.6 0 0 0 6,1 5.4,5.4 0 0 1 6.32,1 Z"
     id="path4"
     inkscape:connector-curvature="0"
     style="fill:#e6e6e6" />
</svg>
